X:64
T:I can't conceal that I prefer you
T:H\`o! Cha cheilinn nach tu b'fhe\`arr leam
R:Jig
S:Simon Fraser Collection
N:No.206
O:Scottish
M:6/8
L:1/8
K:B_
B|G<B z c<Fz|d2B c<Fz|G<Bz c<Fz|d2B G2F|
G<Bz c<Fz|d2B c<Fz|G<Bz G<cz|B2G F2:|
B|G<Bz f2B|d2B f2F|G<Bz f2c|d2B G2F|
G<Bz f2B|d2B c<Fz|G<Bz G<cz|B2G F2e|
d2e f2g|g2f f2e|d2e f2^f|g2B G2g|
f2e d2c|B2c d2B|(c>Bc) d3|B2G F2||

